svg/color/bux.svg

<?xml version="1.0" encoding="UTF-8" ?>
<!DOCTYPE svg PUBLIC "-//W3C//DTD SVG 1.1//EN" "http://www.w3.org/Graphics/SVG/1.1/DTD/svg11.dtd">
<svg width="250pt" height="250pt" viewBox="0 0 250 250" version="1.1" xmlns="http://www.w3.org/2000/svg">
<g id="#ffffffff">
<path fill="#ffffff" opacity="1.00" d=" M 0.00 0.00 L 250.00 0.00 L 250.00 250.00 L 0.00 250.00 L 0.00 0.00 M 109.38 1.41 C 85.44 4.21 62.48 14.56 44.15 30.16 C 23.58 47.68 8.79 72.02 3.34 98.54 C 0.18 112.04 0.46 126.06 1.35 139.81 C 3.45 155.33 7.68 170.74 15.44 184.42 C 31.69 214.51 60.83 237.55 94.12 245.68 C 108.72 249.51 123.94 249.77 138.92 248.72 C 161.54 246.26 183.54 237.54 201.41 223.40 C 224.52 205.51 241.38 179.29 246.80 150.47 C 249.79 137.90 249.43 124.84 248.78 112.02 C 246.17 84.08 233.43 57.25 213.60 37.40 C 198.75 22.27 179.96 11.02 159.55 5.27 C 143.38 0.13 126.13 0.26 109.38 1.41 Z" />
<path fill="#ffffff" opacity="1.00" d=" M 75.63 89.00 C 75.68 76.61 85.55 64.95 97.97 63.50 C 104.85 63.32 111.73 63.48 118.62 63.42 C 118.64 73.46 118.66 83.51 118.61 93.55 C 114.46 93.65 110.27 93.12 106.17 93.88 C 105.99 95.91 105.77 97.94 105.77 99.99 C 105.81 115.66 105.80 131.33 105.78 146.99 C 105.69 150.04 105.84 153.09 106.17 156.12 C 110.27 156.88 114.46 156.35 118.61 156.45 C 118.66 166.49 118.64 176.54 118.62 186.58 C 111.16 186.42 103.68 186.90 96.25 186.31 C 90.45 184.74 84.79 181.72 81.18 176.79 C 76.95 171.93 75.58 165.28 75.59 158.99 C 75.64 135.66 75.56 112.33 75.63 89.00 Z" />
<path fill="#ffffff" opacity="1.00" d=" M 130.81 63.70 C 133.86 63.43 136.94 63.41 140.00 63.46 C 145.94 63.57 152.11 62.80 157.74 65.17 C 165.63 67.61 171.03 74.78 173.43 82.40 C 174.96 88.14 174.27 94.17 174.39 100.04 C 174.54 102.09 173.73 103.97 172.63 105.64 C 164.44 105.93 156.24 105.80 148.05 105.75 C 146.30 105.94 144.33 104.70 144.35 102.81 C 144.18 99.83 144.11 96.84 143.82 93.87 C 139.65 93.14 135.40 93.64 131.19 93.56 C 130.16 83.67 130.87 73.64 130.81 63.70 Z" />
<path fill="#ffffff" opacity="1.00" d=" M 144.34 147.19 C 144.33 145.29 146.30 144.06 148.06 144.25 C 156.25 144.20 164.44 144.07 172.63 144.36 C 173.73 146.03 174.54 147.91 174.39 149.95 C 174.40 158.62 175.31 168.35 169.68 175.66 C 164.80 183.07 155.71 186.91 147.00 186.56 C 141.60 186.44 136.19 186.77 130.81 186.30 C 130.87 176.36 130.17 166.34 131.18 156.44 C 135.39 156.36 139.64 156.86 143.82 156.13 C 144.11 153.16 144.19 150.17 144.34 147.19 Z" />
</g>
<g id="#05bf68ff">
<path fill="#05bf68" opacity="1.00" d=" M 109.38 1.41 C 126.13 0.26 143.38 0.13 159.55 5.27 C 179.96 11.02 198.75 22.27 213.60 37.40 C 233.43 57.25 246.17 84.08 248.78 112.02 C 249.43 124.84 249.79 137.90 246.80 150.47 C 241.38 179.29 224.52 205.51 201.41 223.40 C 183.54 237.54 161.54 246.26 138.92 248.72 C 123.94 249.77 108.72 249.51 94.12 245.68 C 60.83 237.55 31.69 214.51 15.44 184.42 C 7.68 170.74 3.45 155.33 1.35 139.81 C 0.46 126.06 0.18 112.04 3.34 98.54 C 8.79 72.02 23.58 47.68 44.15 30.16 C 62.48 14.56 85.44 4.21 109.38 1.41 M 75.63 89.00 C 75.56 112.33 75.64 135.66 75.59 158.99 C 75.58 165.28 76.95 171.93 81.18 176.79 C 84.79 181.72 90.45 184.74 96.25 186.31 C 103.68 186.90 111.16 186.42 118.62 186.58 C 118.64 176.54 118.66 166.49 118.61 156.45 C 114.46 156.35 110.27 156.88 106.17 156.12 C 105.84 153.09 105.69 150.04 105.78 146.99 C 105.80 131.33 105.81 115.66 105.77 99.99 C 105.77 97.94 105.99 95.91 106.17 93.88 C 110.27 93.12 114.46 93.65 118.61 93.55 C 118.66 83.51 118.64 73.46 118.62 63.42 C 111.73 63.48 104.85 63.32 97.97 63.50 C 85.55 64.95 75.68 76.61 75.63 89.00 M 130.81 63.70 C 130.87 73.64 130.16 83.67 131.19 93.56 C 135.40 93.64 139.65 93.14 143.82 93.87 C 144.11 96.84 144.18 99.83 144.35 102.81 C 144.33 104.70 146.30 105.94 148.05 105.75 C 156.24 105.80 164.44 105.93 172.63 105.64 C 173.73 103.97 174.54 102.09 174.39 100.04 C 174.27 94.17 174.96 88.14 173.43 82.40 C 171.03 74.78 165.63 67.61 157.74 65.17 C 152.11 62.80 145.94 63.57 140.00 63.46 C 136.94 63.41 133.86 63.43 130.81 63.70 M 144.34 147.19 C 144.19 150.17 144.11 153.16 143.82 156.13 C 139.64 156.86 135.39 156.36 131.18 156.44 C 130.17 166.34 130.87 176.36 130.81 186.30 C 136.19 186.77 141.60 186.44 147.00 186.56 C 155.71 186.91 164.80 183.07 169.68 175.66 C 175.31 168.35 174.40 158.62 174.39 149.95 C 174.54 147.91 173.73 146.03 172.63 144.36 C 164.44 144.07 156.25 144.20 148.06 144.25 C 146.30 144.06 144.33 145.29 144.34 147.19 Z" />
</g>
</svg>

<?xml version="1.0" encoding="utf-8"?>
<!-- Generator: Adobe Illustrator 26.0.3, SVG Export Plug-In . SVG Version: 6.00 Build 0)  -->
<svg version="1.1" id="Layer_1" xmlns="http://www.w3.org/2000/svg" xmlns:xlink="http://www.w3.org/1999/xlink" x="0px" y="0px"
	 viewBox="0 0 250 250" style="enable-background:new 0 0 250 250;" xml:space="preserve">
<style type="text/css">
	.st0{fill:#FFFFFF;}
	.st1{fill:#05BF68;}
</style>
<g id="_x23_ffffffff">
	<path class="st0" d="M75.6,89c0.1-12.4,9.9-24.1,22.3-25.5c6.9-0.2,13.8,0,20.7-0.1c0,10,0,20.1,0,30.1c-4.2,0.1-8.3-0.4-12.4,0.3
		c-0.2,2-0.4,4.1-0.4,6.1c0,15.7,0,31.3,0,47c-0.1,3,0.1,6.1,0.4,9.1c4.1,0.8,8.3,0.2,12.4,0.3c0.1,10,0,20.1,0,30.1
		c-7.5-0.2-14.9,0.3-22.4-0.3c-5.8-1.6-11.5-4.6-15.1-9.5c-4.2-4.9-5.6-11.5-5.6-17.8C75.6,135.7,75.6,112.3,75.6,89z"/>
	<path class="st0" d="M130.8,63.7c3.1-0.3,6.1-0.3,9.2-0.2c5.9,0.1,12.1-0.7,17.7,1.7c7.9,2.4,13.3,9.6,15.7,17.2
		c1.5,5.7,0.8,11.8,1,17.6c0.1,2-0.7,3.9-1.8,5.6c-8.2,0.3-16.4,0.2-24.6,0.1c-1.8,0.2-3.7-1.1-3.7-2.9c-0.2-3-0.2-6-0.5-8.9
		c-4.2-0.7-8.4-0.2-12.6-0.3C130.2,83.7,130.9,73.6,130.8,63.7z"/>
	<path class="st0" d="M144.3,147.2c0-1.9,2-3.1,3.7-2.9c8.2-0.1,16.4-0.2,24.6,0.1c1.1,1.7,1.9,3.6,1.8,5.6c0,8.7,0.9,18.4-4.7,25.7
		c-4.9,7.4-14,11.2-22.7,10.9c-5.4-0.1-10.8,0.2-16.2-0.3c0.1-9.9-0.6-20,0.4-29.9c4.2-0.1,8.5,0.4,12.6-0.3
		C144.1,153.2,144.2,150.2,144.3,147.2z"/>
</g>
<g id="_x23_05bf68ff">
	<path class="st1" d="M109.4,1.4c16.8-1.1,34-1.3,50.2,3.9c20.4,5.8,39.2,17,54.1,32.1c19.8,19.8,32.6,46.7,35.2,74.6
		c0.6,12.8,1,25.9-2,38.5c-5.4,28.8-22.3,55-45.4,72.9c-17.9,14.1-39.9,22.9-62.5,25.3c-15,1.1-30.2,0.8-44.8-3
		c-33.3-8.1-62.4-31.2-78.7-61.3c-7.8-13.7-12-29.1-14.1-44.6c-0.9-13.8-1.2-27.8,2-41.3C8.8,72,23.6,47.7,44.2,30.2
		C62.5,14.6,85.4,4.2,109.4,1.4 M75.6,89c-0.1,23.3,0,46.7,0,70c0,6.3,1.4,12.9,5.6,17.8c3.6,4.9,9.3,8,15.1,9.5
		c7.4,0.6,14.9,0.1,22.4,0.3c0-10,0-20.1,0-30.1c-4.2-0.1-8.3,0.4-12.4-0.3c-0.3-3-0.5-6.1-0.4-9.1c0-15.7,0-31.3,0-47
		c0-2,0.2-4.1,0.4-6.1c4.1-0.8,8.3-0.2,12.4-0.3c0.1-10,0-20.1,0-30.1c-6.9,0.1-13.8-0.1-20.7,0.1C85.6,64.9,75.7,76.6,75.6,89
		 M130.8,63.7c0.1,9.9-0.6,20,0.4,29.9c4.2,0.1,8.5-0.4,12.6,0.3c0.3,3,0.4,6,0.5,8.9c0,1.9,1.9,3.1,3.7,2.9
		c8.2,0.1,16.4,0.2,24.6-0.1c1.1-1.7,1.9-3.6,1.8-5.6c-0.1-5.9,0.6-11.9-1-17.6c-2.4-7.6-7.8-14.8-15.7-17.2
		c-5.6-2.4-11.8-1.6-17.7-1.7C136.9,63.4,133.9,63.4,130.8,63.7 M144.3,147.2c-0.1,3-0.2,6-0.5,8.9c-4.2,0.7-8.4,0.2-12.6,0.3
		c-1,9.9-0.3,19.9-0.4,29.9c5.4,0.5,10.8,0.1,16.2,0.3c8.7,0.4,17.8-3.5,22.7-10.9c5.6-7.3,4.7-17,4.7-25.7c0.1-2-0.7-3.9-1.8-5.6
		c-8.2-0.3-16.4-0.2-24.6-0.1C146.3,144.1,144.3,145.3,144.3,147.2z"/>
</g>
</svg>
